src/svg/it-twitter.svg

<svg width="24px" height="24px" viewBox="0 0 24 24" version="1.1"
     xmlns="http://www.w3.org/2000/svg">
  <title>Logo Twitter</title>
  <g stroke="none" stroke-width="1">
    <g>
      <rect x="0" y="0" width="24" height="24" fill="none"></rect>
    </g>
    <path
      d="M8.08,20 C11.0030986,20.0187814 13.8119172,18.8658882 15.8789027,16.7989027 C17.9458882,14.7319172 19.0987814,11.9230986 19.08,9 C19.08,8.83 19.08,8.67 19.08,8.5 C19.831521,7.95015666 20.481276,7.27332853 21,6.5 C20.2940009,6.81133322 19.5459577,7.01687661 18.78,7.11 C19.5812282,6.63313367 20.1845204,5.88434151 20.48,5 C19.7094731,5.43866758 18.8713828,5.74619264 18,5.91 C16.9143503,4.75485725 15.2339991,4.37861981 13.7594192,4.9605168 C12.2848393,5.54241379 11.3142447,6.96476439 11.31,8.55 C11.3074895,8.84630501 11.34107,9.14181323 11.41,9.43 C8.29715346,9.28993853 5.3897571,7.83624035 3.41,5.43 C2.37301336,7.19303087 2.89563314,9.4591805 4.6,10.59 C3.98622679,10.5752735 3.38539663,10.4104744 2.85,10.11 L2.85,10.11 C2.85116886,11.9687779 4.17367422,13.5641812 6,13.91 C5.67455337,14.001778 5.33813822,14.0488761 5,14.05 C4.75568802,14.0541046 4.51147074,14.0373774 4.27,14 C4.7778004,15.5724042 6.22792485,16.6489509 7.88,16.68 C6.51264058,17.7581765 4.82130032,18.3430984 3.08,18.34 C2.77234803,18.3402389 2.46501495,18.3201954 2.16,18.28 C3.92671027,19.4110519 5.98226906,20.0082751 8.08,20"
      ></path>
  </g>
</svg>

<svg xmlns="http://www.w3.org/2000/svg" viewBox="0 0 24 24"><title>it-twitter</title><g><path d="M8.08,20a10.93,10.93,0,0,0,11-11c0-.17,0-.33,0-.5A8,8,0,0,0,21,6.5a7.85,7.85,0,0,1-2.22.61A3.89,3.89,0,0,0,20.48,5,8,8,0,0,1,18,5.91a3.87,3.87,0,0,0-6.69,2.64,3.65,3.65,0,0,0,.1.88,11,11,0,0,1-8-4,3.85,3.85,0,0,0,1.19,5.16,3.76,3.76,0,0,1-1.75-.48v0A3.87,3.87,0,0,0,6,13.91a3.73,3.73,0,0,1-1,.14A4.3,4.3,0,0,1,4.27,14a3.87,3.87,0,0,0,3.61,2.68,7.73,7.73,0,0,1-4.8,1.66,7,7,0,0,1-.92-.06A10.9,10.9,0,0,0,8.08,20"/></g></svg>
